static/assets/images/networks/aurora.svg

<svg xmlns="http://www.w3.org/2000/svg" fill="none" viewBox="0 0 512 512"><path fill="#6DD249" d="M256 512c141.385 0 256-114.615 256-256S397.385 0 256 0 0 114.615 0 256s114.615 256 256 256"/><path fill="#fff" d="M255.964 403.777H143.989c-34.545 0-62.918-24.58-67.579-58.724-2.125-15.459 1.151-29.907 8.953-43.385a47339 47339 0 0 0 52.795-91.437q29.53-51.163 59.073-102.318c11.186-19.305 27.908-31.124 50.009-33.622 29.315-3.318 52.268 8.054 67.392 33.528 16.858 28.393 33.09 57.153 49.612 85.755q31.226 54.063 62.452 108.159c6.604 11.428 9.848 23.667 9.503 36.884-.829 31.65-25.461 59.656-56.668 64.242a83 83 0 0 1-11.81.881q-55.88.097-111.757.037m0-41.913h111.524c4.824 0 9.396-.839 13.641-3.216 11.218-6.268 17.566-21.802 9.228-36.124-25.008-42.943-49.752-86.049-74.597-129.099a599758 599758 0 0 1-37.327-64.661c-5.262-9.102-13.236-13.609-23.676-13.185-9.694.392-16.713 5.323-21.541 13.702a88657 88657 0 0 1-74.02 128.363 99158 99158 0 0 1-37.448 64.861c-3.052 5.267-4.721 10.818-3.784 16.904 2.102 13.637 12.43 22.441 26.267 22.451q55.861.023 111.738.004z"/></svg>

<svg width="512" height="512" viewBox="0 0 512 512" fill="none" xmlns="http://www.w3.org/2000/svg">
<path d="M256 512C397.385 512 512 397.385 512 256C512 114.615 397.385 0 256 0C114.615 0 0 114.615 0 256C0 397.385 114.615 512 256 512Z" fill="#6DD249"/>
<path d="M255.964 403.777H143.989C109.444 403.777 81.0706 379.197 76.41 345.053C74.2848 329.594 77.5612 315.146 85.363 301.668C102.989 271.219 120.588 240.74 138.158 210.231C157.845 176.122 177.536 142.016 197.231 107.913C208.417 88.6084 225.139 76.7891 247.24 74.291C276.555 70.9727 299.508 82.3446 314.632 107.819C331.489 136.212 347.722 164.972 364.244 193.574C385.061 229.616 405.879 265.669 426.696 301.733C433.3 313.161 436.544 325.4 436.199 338.617C435.37 370.267 410.738 398.273 379.531 402.859C375.62 403.434 371.674 403.728 367.721 403.74C330.467 403.805 293.215 403.817 255.964 403.777ZM255.964 361.864C293.137 361.864 330.312 361.864 367.488 361.864C372.312 361.864 376.884 361.025 381.129 358.648C392.347 352.38 398.695 336.846 390.357 322.524C365.349 279.581 340.605 236.475 315.76 193.425C303.316 171.872 290.874 150.318 278.433 128.764C273.171 119.662 265.197 115.155 254.757 115.579C245.063 115.971 238.044 120.902 233.216 129.281C208.574 172.097 183.901 214.884 159.196 257.644C146.721 279.269 134.239 300.89 121.748 322.505C118.696 327.772 117.027 333.323 117.964 339.409C120.066 353.046 130.394 361.85 144.231 361.86C181.472 361.875 218.718 361.877 255.969 361.864H255.964Z" fill="white"/>
</svg>
